X:268
T: Murray's Fancy
N: O'Farrell's Pocket Companion v.3 (Sky ed. p.123)
N: "Scotch"
M: C
L: 1/8
R: hornpipe % strathspey
Q: 280
K: Am
A| E<AA>B cdeg| G<G dcBG G2| E<AA>B cdeg| dBGB c<A A :|
g| a2 ea f/g/a ea| gfgd BG Gg| a2 ea f/g/a ea| ge dc/B/ cAAg|
aeed ce g2| gfgd BGGB| cAdB ec fd| ge dc/B/ c<A A ||
